X:3909
T:Prince Charles of Edinburgh
P:Prince Charles of Edinburgh
C:John Robertson
B:RSCDS 39-9
Z:Anselm Lingnau <anselm@strathspey.org>
R:Reel (1x160) ABABC - See original book for complete arrangement
M:C|
L:1/8
K:D
|:A2|"D"D2dc dBAF|"E"E2 ed "A"cABc|"D"d2 DC DFAd|"A7"ce2f "D"d2 Ac|\
     "D"d2de dAFA|
                  "Em"GABc "A"defg|"D"aAde fABd|"A"ce2c "D"d2||\
fa|"D"d2af dAFD|CDFA d2fd|
                          "G"efga "Em"gf"E7"ed|"A"cdec "A7"AGFE|\
   "D"D2dc dAFA|"Em"GABc "A"defg|"D"afdf "G"edcB|
                                                 "A"Aefe "D"d2:|\
fa|"D"d2af dAFD|CDFA d2fd|"G"efga "Em"gf"E7"ed|"A"cdec "A7"AGFE|
   "D"D2dc dAFA|"Em"GABc "A"defg|"D"afdf "G"edcB|"A"Aefe "D"d2|]
